Numix-Light/16/status/indicator-keyboard-Bg.svg

<?xml version="1.0" encoding="UTF-8" standalone="no"?>
<svg
   xmlns:dc="http://purl.org/dc/elements/1.1/"
   xmlns:cc="http://creativecommons.org/ns#"
   xmlns:rdf="http://www.w3.org/1999/02/22-rdf-syntax-ns#"
   xmlns:svg="http://www.w3.org/2000/svg"
   xmlns="http://www.w3.org/2000/svg"
   xmlns:sodipodi="http://sodipodi.sourceforge.net/DTD/sodipodi-0.dtd"
   xmlns:inkscape="http://www.inkscape.org/namespaces/inkscape"
   viewBox="0 0 16 16"
   id="svg2"
   version="1.1"
   inkscape:version="0.91 r13725"
   sodipodi:docname="indicator-keyboard-Bg.svg">
  <metadata
     id="metadata13">
    <rdf:RDF>
      <cc:Work
         rdf:about="">
        <dc:format>image/svg+xml</dc:format>
        <dc:type
           rdf:resource="http://purl.org/dc/dcmitype/StillImage" />
      </cc:Work>
    </rdf:RDF>
  </metadata>
  <defs
     id="defs11" />
  <sodipodi:namedview
     pagecolor="#ffffff"
     bordercolor="#666666"
     borderopacity="1"
     objecttolerance="10"
     gridtolerance="10"
     guidetolerance="10"
     inkscape:pageopacity="0"
     inkscape:pageshadow="2"
     inkscape:window-width="640"
     inkscape:window-height="480"
     id="namedview9"
     showgrid="false"
     inkscape:zoom="14.75"
     inkscape:cx="8"
     inkscape:cy="8"
     inkscape:window-x="65"
     inkscape:window-y="24"
     inkscape:window-maximized="0"
     inkscape:current-layer="svg2" />
  <path
     style="fill:#353535;fill-opacity:1"
     d="M 1.5996094 0 C 0.71320937 2.9605947e-16 0 0.71320937 0 1.5996094 L 0 14.400391 C 2.9605947e-16 15.286791 0.71320937 16 1.5996094 16 L 14.400391 16 C 15.286791 16 16 15.286791 16 14.400391 L 16 1.5996094 C 16 0.71320937 15.286791 0 14.400391 0 L 1.5996094 0 z M 4.9316406 4.0078125 C 5.2676406 4.0078125 5.5847656 4.0358438 5.8847656 4.0898438 C 6.1907656 4.1438438 6.4595 4.233375 6.6875 4.359375 C 6.9155 4.485375 7.0945625 4.6532813 7.2265625 4.8632812 C 7.3645625 5.0672812 7.4335938 5.3229063 7.4335938 5.6289062 C 7.4335938 5.9649063 7.345875 6.2521875 7.171875 6.4921875 C 7.003875 6.7261875 6.7762813 6.8885156 6.4882812 6.9785156 C 6.6682812 7.0205156 6.834375 7.0802031 6.984375 7.1582031 C 7.134375 7.2362031 7.2649062 7.3388437 7.3789062 7.4648438 C 7.4929063 7.5848438 7.580625 7.7340625 7.640625 7.9140625 C 7.706625 8.0880625 7.7402344 8.2989219 7.7402344 8.5449219 C 7.7402344 9.1329219 7.5051094 9.5825313 7.0371094 9.8945312 C 6.5691094 10.200531 5.8471406 10.353516 4.8691406 10.353516 C 4.7671406 10.353516 4.6458125 10.347938 4.5078125 10.335938 C 4.3758125 10.329938 4.23775 10.316828 4.09375 10.298828 C 3.95575 10.286828 3.8252188 10.271906 3.6992188 10.253906 C 3.5732188 10.229906 3.465 10.205641 3.375 10.181641 L 3.375 4.1796875 C 3.483 4.1496875 3.602375 4.1254219 3.734375 4.1074219 C 3.866375 4.0834219 4.0006719 4.0647344 4.1386719 4.0527344 C 4.2826719 4.0347344 4.4207344 4.0235781 4.5527344 4.0175781 C 4.6907344 4.0115781 4.8176406 4.0078125 4.9316406 4.0078125 z M 4.9316406 4.53125 C 4.7096406 4.53125 4.5212344 4.5368281 4.3652344 4.5488281 C 4.2152344 4.5608281 4.0883281 4.57575 3.9863281 4.59375 L 3.9863281 6.7890625 L 5.1738281 6.7890625 C 5.3958281 6.7890625 5.6066875 6.7741406 5.8046875 6.7441406 C 6.0026875 6.7081406 6.1743594 6.6484531 6.3183594 6.5644531 C 6.4683594 6.4744531 6.5839687 6.3568906 6.6679688 6.2128906 C 6.7519687 6.0628906 6.7949219 5.8744844 6.7949219 5.6464844 C 6.7949219 5.4424844 6.7501562 5.2708125 6.6601562 5.1328125 C 6.5701563 4.9888125 6.4414375 4.8732031 6.2734375 4.7832031 C 6.1114375 4.6932031 5.9155 4.62975 5.6875 4.59375 C 5.4595 4.55175 5.2076406 4.53125 4.9316406 4.53125 z M 10.941406 5.5566406 C 11.373406 5.5566406 11.718562 5.5864844 11.976562 5.6464844 C 12.240562 5.7004844 12.457 5.7545938 12.625 5.8085938 L 12.625 10.056641 C 12.625 10.752641 12.445938 11.247016 12.085938 11.541016 C 11.725938 11.841016 11.183031 11.992188 10.457031 11.992188 C 10.157031 11.992188 9.8827185 11.967922 9.6367188 11.919922 C 9.3967187 11.877922 9.189625 11.825625 9.015625 11.765625 L 9.1328125 11.236328 C 9.2768125 11.302328 9.47275 11.35825 9.71875 11.40625 C 9.9707498 11.45425 10.222609 11.478516 10.474609 11.478516 C 11.026609 11.478516 11.425875 11.370297 11.671875 11.154297 C 11.923875 10.944297 12.048828 10.582406 12.048828 10.066406 L 12.048828 9.7597656 C 12.012828 9.7897656 11.958719 9.8251875 11.886719 9.8671875 C 11.814719 9.9031875 11.725188 9.942375 11.617188 9.984375 C 11.515187 10.026377 11.395813 10.061799 11.257812 10.091797 C 11.125812 10.115797 10.974641 10.128906 10.806641 10.128906 C 10.536641 10.128906 10.275438 10.085953 10.023438 10.001953 C 9.7714377 9.9179535 9.5494219 9.7874219 9.3574219 9.6074219 C 9.1714219 9.4274219 9.0222031 9.1960625 8.9082031 8.9140625 C 8.7942031 8.6260625 8.7382812 8.2771406 8.7382812 7.8691406 C 8.7382812 7.5391406 8.788625 7.2331719 8.890625 6.9511719 C 8.992625 6.6691719 9.1362656 6.4266563 9.3222656 6.2226562 C 9.5142656 6.0126563 9.7456252 5.8503281 10.015625 5.7363281 C 10.291625 5.6163281 10.599406 5.5566406 10.941406 5.5566406 z M 10.951172 6.0878906 C 10.699172 6.0878906 10.473391 6.1326562 10.275391 6.2226562 C 10.083391 6.3066563 9.91925 6.4297969 9.78125 6.5917969 C 9.64325 6.7477969 9.5387969 6.9362031 9.4667969 7.1582031 C 9.3947969 7.3742031 9.3574219 7.6149062 9.3574219 7.8789062 C 9.3574219 8.1849063 9.400375 8.4479219 9.484375 8.6699219 C 9.568375 8.8859219 9.6765937 9.0631719 9.8085938 9.2011719 C 9.9465936 9.3391719 10.101391 9.4418125 10.275391 9.5078125 C 10.449391 9.5678125 10.626641 9.5976562 10.806641 9.5976562 C 11.070641 9.5976562 11.311344 9.5584687 11.527344 9.4804688 C 11.749344 9.4024687 11.921016 9.3129375 12.041016 9.2109375 L 12.041016 6.2128906 C 11.939016 6.1828906 11.806531 6.1568125 11.644531 6.1328125 C 11.482531 6.1028125 11.251172 6.0878906 10.951172 6.0878906 z M 3.9863281 7.3105469 L 3.9863281 9.7675781 C 4.0763281 9.7795781 4.2125781 9.7964531 4.3925781 9.8144531 C 4.5725781 9.8264531 4.7554062 9.8320312 4.9414062 9.8320312 C 5.2174062 9.8320312 5.4841875 9.8133437 5.7421875 9.7773438 C 6.0061875 9.7413438 6.2375469 9.6760781 6.4355469 9.5800781 C 6.6335469 9.4840781 6.7921094 9.3515938 6.9121094 9.1835938 C 7.0321094 9.0155937 7.0917969 8.7991562 7.0917969 8.5351562 C 7.0917969 8.2951562 7.0488437 8.0974063 6.9648438 7.9414062 C 6.8808437 7.7794063 6.7614687 7.6544531 6.6054688 7.5644531 C 6.4494687 7.4684531 6.2572969 7.4012344 6.0292969 7.3652344 C 5.8072969 7.3292344 5.5592031 7.3105469 5.2832031 7.3105469 L 3.9863281 7.3105469 z "
     id="path4" />
</svg>

<svg xmlns="http://www.w3.org/2000/svg" viewBox="0 0 16 16">
 <path d="m 1.6 0 c -0.886 0 -1.6 0.713 -1.6 1.6 l 0 12.801 c 0 0.886 0.713 1.6 1.6 1.6 l 12.801 0 c 0.886 0 1.6 -0.713 1.6 -1.6 l 0 -12.801 c 0 -0.886 -0.713 -1.6 -1.6 -1.6 l -12.801 0 z m 3.332 4.01 c 0.336 0 0.653 0.028 0.953 0.082 c 0.306 0.054 0.575 0.144 0.803 0.27 c 0.228 0.126 0.407 0.294 0.539 0.504 c 0.138 0.204 0.207 0.46 0.207 0.766 c 0 0.336 -0.088 0.623 -0.262 0.863 c -0.168 0.234 -0.396 0.396 -0.684 0.486 c 0.18 0.042 0.346 0.102 0.496 0.18 c 0.15 0.078 0.281 0.181 0.395 0.307 c 0.114 0.12 0.202 0.269 0.262 0.449 c 0.066 0.174 0.1 0.385 0.1 0.631 c 0 0.588 -0.235 1.038 -0.703 1.35 c -0.468 0.306 -1.19 0.459 -2.168 0.459 c -0.102 0 -0.223 -0.006 -0.361 -0.018 c -0.132 -0.006 -0.27 -0.019 -0.414 -0.037 c -0.138 -0.012 -0.269 -0.027 -0.395 -0.045 c -0.126 -0.024 -0.234 -0.048 -0.324 -0.072 l 0 -6 c 0.108 -0.03 0.227 -0.054 0.359 -0.072 c 0.132 -0.024 0.266 -0.043 0.404 -0.055 c 0.144 -0.018 0.282 -0.029 0.414 -0.035 c 0.138 -0.006 0.265 -0.01 0.379 -0.01 z m 0 0.523 c -0.222 0 -0.41 0.006 -0.566 0.018 c -0.15 0.012 -0.277 0.027 -0.379 0.045 l 0 2.195 l 1.187 0 c 0.222 0 0.433 -0.015 0.631 -0.045 c 0.198 -0.036 0.37 -0.096 0.514 -0.18 c 0.15 -0.09 0.266 -0.208 0.35 -0.352 c 0.084 -0.15 0.127 -0.338 0.127 -0.566 c 0 -0.204 -0.045 -0.376 -0.135 -0.514 c -0.09 -0.144 -0.219 -0.26 -0.387 -0.35 c -0.162 -0.09 -0.358 -0.153 -0.586 -0.189 c -0.228 -0.042 -0.48 -0.063 -0.756 -0.063 z m 6.01 1.025 c 0.432 0 0.777 0.03 1.035 0.09 c 0.264 0.054 0.48 0.108 0.648 0.162 l 0 4.248 c 0 0.696 -0.179 1.19 -0.539 1.484 c -0.36 0.3 -0.903 0.451 -1.629 0.451 c -0.3 0 -0.574 -0.024 -0.82 -0.072 c -0.24 -0.042 -0.447 -0.094 -0.621 -0.154 l 0.117 -0.529 c 0.144 0.066 0.34 0.122 0.586 0.17 c 0.252 0.048 0.504 0.072 0.756 0.072 c 0.552 0 0.951 -0.108 1.197 -0.324 c 0.252 -0.21 0.377 -0.572 0.377 -1.088 l 0 -0.307 c -0.036 0.03 -0.09 0.065 -0.162 0.107 c -0.072 0.036 -0.162 0.075 -0.27 0.117 c -0.102 0.042 -0.221 0.077 -0.359 0.107 c -0.132 0.024 -0.283 0.037 -0.451 0.037 c -0.27 0 -0.531 -0.043 -0.783 -0.127 c -0.252 -0.084 -0.474 -0.215 -0.666 -0.395 c -0.186 -0.18 -0.335 -0.411 -0.449 -0.693 c -0.114 -0.288 -0.17 -0.637 -0.17 -1.045 c 0 -0.33 0.05 -0.636 0.152 -0.918 c 0.102 -0.282 0.246 -0.525 0.432 -0.729 c 0.192 -0.21 0.423 -0.372 0.693 -0.486 c 0.276 -0.12 0.584 -0.18 0.926 -0.18 z m 0.01 0.531 c -0.252 0 -0.478 0.045 -0.676 0.135 c -0.192 0.084 -0.356 0.207 -0.494 0.369 c -0.138 0.156 -0.242 0.344 -0.314 0.566 c -0.072 0.216 -0.109 0.457 -0.109 0.721 c 0 0.306 0.043 0.569 0.127 0.791 c 0.084 0.216 0.192 0.393 0.324 0.531 c 0.138 0.138 0.293 0.241 0.467 0.307 c 0.174 0.06 0.351 0.09 0.531 0.09 c 0.264 0 0.505 -0.039 0.721 -0.117 c 0.222 -0.078 0.394 -0.168 0.514 -0.27 l 0 -2.998 c -0.102 -0.03 -0.234 -0.056 -0.396 -0.08 c -0.162 -0.03 -0.393 -0.045 -0.693 -0.045 z m -6.965 1.223 l 0 2.457 c 0.09 0.012 0.226 0.029 0.406 0.047 c 0.18 0.012 0.363 0.018 0.549 0.018 c 0.276 0 0.543 -0.019 0.801 -0.055 c 0.264 -0.036 0.495 -0.101 0.693 -0.197 c 0.198 -0.096 0.357 -0.228 0.477 -0.396 c 0.12 -0.168 0.18 -0.384 0.18 -0.648 c 0 -0.24 -0.043 -0.438 -0.127 -0.594 c -0.084 -0.162 -0.203 -0.287 -0.359 -0.377 c -0.156 -0.096 -0.348 -0.163 -0.576 -0.199 c -0.222 -0.036 -0.47 -0.055 -0.746 -0.055 l -1.297 0 z" style="fill:#353535;fill-opacity:1"/>
</svg>
